build/images/icons/logo-mobile.svg

<svg width="79" height="16" viewBox="0 0 79 16" fill="none" xmlns="http://www.w3.org/2000/svg">
<path d="M0.267188 15C0.200521 15 0.167188 14.9667 0.167188 14.9L0.207188 1.16C0.207188 1.10667 0.233854 1.08 0.287188 1.08L4.02719 1.06C4.76052 1.04667 5.42719 1.22 6.02719 1.58C6.64052 1.94 7.12719 2.42667 7.48719 3.04C7.84719 3.64 8.02719 4.30667 8.02719 5.04V10.78C8.02719 11.5533 7.84052 12.26 7.46719 12.9C7.09385 13.5267 6.59385 14.0267 5.96719 14.4C5.34052 14.7733 4.63385 14.9667 3.84719 14.98L0.267188 15ZM2.60719 12.54H3.84719C4.34052 12.54 4.75385 12.3667 5.08719 12.02C5.43385 11.6733 5.60719 11.26 5.60719 10.78V5.02C5.60719 4.59333 5.44719 4.22667 5.12719 3.92C4.82052 3.6 4.45385 3.44667 4.02719 3.46L2.62719 3.48L2.60719 12.54ZM9.68078 15C9.62745 15 9.60078 14.9667 9.60078 14.9L9.64078 1.16C9.64078 1.10667 9.66745 1.08 9.72078 1.08H13.7608C14.4808 1.08 15.1408 1.26 15.7408 1.62C16.3541 1.96667 16.8408 2.44 17.2008 3.04C17.5608 3.62667 17.7408 4.29333 17.7408 5.04C17.7408 5.53333 17.6674 5.98 17.5208 6.38C17.3741 6.76667 17.2008 7.1 17.0008 7.38C16.8008 7.64667 16.6208 7.84667 16.4608 7.98C17.1808 8.78 17.5408 9.72 17.5408 10.8L17.5608 14.9C17.5608 14.9667 17.5274 15 17.4608 15H15.2008C15.1474 15 15.1208 14.98 15.1208 14.94V10.8C15.1208 10.32 14.9474 9.90667 14.6008 9.56C14.2674 9.2 13.8541 9.02 13.3608 9.02H12.0408L12.0208 14.9C12.0208 14.9667 11.9941 15 11.9408 15H9.68078ZM12.0408 6.62H13.7608C14.1741 6.62 14.5408 6.46667 14.8608 6.16C15.1808 5.85333 15.3408 5.48 15.3408 5.04C15.3408 4.61333 15.1808 4.24667 14.8608 3.94C14.5541 3.63333 14.1874 3.48 13.7608 3.48H12.0408V6.62ZM19.3492 15C19.2826 15 19.2492 14.9667 19.2492 14.9L19.2692 1.16C19.2692 1.10667 19.2959 1.08 19.3492 1.08H21.5892C21.6426 1.08 21.6692 1.10667 21.6692 1.16L21.6892 14.9C21.6892 14.9667 21.6626 15 21.6092 15H19.3492ZM25.6884 15C25.6351 15 25.6018 14.9667 25.5884 14.9L22.8284 1.16C22.8151 1.10667 22.8418 1.08 22.9084 1.08H25.1684C25.2218 1.08 25.2551 1.10667 25.2684 1.16L26.9084 10.32L28.5084 1.16C28.5218 1.10667 28.5551 1.08 28.6084 1.08H30.8484C30.9151 1.08 30.9418 1.10667 30.9284 1.16L28.2084 14.9C28.1951 14.9667 28.1618 15 28.1084 15H25.6884ZM32.1808 15C32.1274 15 32.1008 14.9667 32.1008 14.9L32.1208 1.16C32.1208 1.10667 32.1474 1.08 32.2008 1.08H38.6208C38.6741 1.08 38.7008 1.11333 38.7008 1.18V3.42C38.7008 3.47333 38.6741 3.5 38.6208 3.5H34.5208V6.62H38.6208C38.6741 6.62 38.7008 6.64667 38.7008 6.7L38.7208 8.96C38.7208 9.01333 38.6941 9.04 38.6408 9.04H34.5208V12.54H38.6408C38.6941 12.54 38.7208 12.5733 38.7208 12.64V14.92C38.7208 14.9733 38.6941 15 38.6408 15H32.1808ZM43.548 15C43.4946 15 43.468 14.9667 43.468 14.9L43.508 1.16C43.508 1.10667 43.5346 1.08 43.588 1.08H46.028C46.0813 1.08 46.128 1.10667 46.168 1.16L47.988 3.8L49.808 1.16C49.848 1.10667 49.8946 1.08 49.948 1.08H52.408C52.4613 1.08 52.488 1.10667 52.488 1.16L52.528 14.9C52.528 14.9667 52.5013 15 52.448 15H50.188C50.1346 15 50.108 14.9667 50.108 14.9L50.088 4.7L47.988 7.74L45.908 4.7L45.888 14.9C45.888 14.9667 45.8613 15 45.808 15H43.548ZM57.9102 15.2C57.1902 15.2 56.5302 15.02 55.9302 14.66C55.3435 14.2867 54.8702 13.8 54.5102 13.2C54.1502 12.5867 53.9702 11.9133 53.9702 11.18L53.9902 4.84C53.9902 4.10667 54.1635 3.44 54.5102 2.84C54.8702 2.24 55.3502 1.76 55.9502 1.4C56.5502 1.04 57.2035 0.86 57.9102 0.86C58.6302 0.86 59.2835 1.04 59.8702 1.4C60.4568 1.76 60.9235 2.24 61.2702 2.84C61.6302 3.44 61.8102 4.10667 61.8102 4.84L61.8302 11.18C61.8302 11.9133 61.6502 12.5867 61.2902 13.2C60.9435 13.8 60.4702 14.2867 59.8702 14.66C59.2835 15.02 58.6302 15.2 57.9102 15.2ZM57.9102 12.78C58.3102 12.78 58.6568 12.62 58.9502 12.3C59.2568 11.9667 59.4102 11.5933 59.4102 11.18L59.3902 4.84C59.3902 4.4 59.2502 4.02667 58.9702 3.72C58.6902 3.41333 58.3368 3.26 57.9102 3.26C57.4968 3.26 57.1435 3.41333 56.8502 3.72C56.5568 4.01333 56.4102 4.38667 56.4102 4.84V11.18C56.4102 11.62 56.5568 12 56.8502 12.32C57.1435 12.6267 57.4968 12.78 57.9102 12.78ZM65.0969 15C65.0435 15 65.0169 14.9667 65.0169 14.9V3.5H62.4169C62.3502 3.5 62.3169 3.46667 62.3169 3.4L62.3369 1.16C62.3369 1.10667 62.3635 1.08 62.4169 1.08H70.0169C70.0835 1.08 70.1169 1.10667 70.1169 1.16V3.4C70.1169 3.46667 70.0902 3.5 70.0369 3.5H67.4169L67.4369 14.9C67.4369 14.9667 67.4102 15 67.3569 15H65.0969ZM74.3555 15.2C73.6355 15.2 72.9755 15.02 72.3755 14.66C71.7888 14.2867 71.3155 13.8 70.9555 13.2C70.5955 12.5867 70.4155 11.9133 70.4155 11.18L70.4355 4.84C70.4355 4.10667 70.6088 3.44 70.9555 2.84C71.3155 2.24 71.7955 1.76 72.3955 1.4C72.9955 1.04 73.6488 0.86 74.3555 0.86C75.0755 0.86 75.7288 1.04 76.3155 1.4C76.9021 1.76 77.3688 2.24 77.7155 2.84C78.0755 3.44 78.2555 4.10667 78.2555 4.84L78.2755 11.18C78.2755 11.9133 78.0955 12.5867 77.7355 13.2C77.3888 13.8 76.9155 14.2867 76.3155 14.66C75.7288 15.02 75.0755 15.2 74.3555 15.2ZM74.3555 12.78C74.7555 12.78 75.1021 12.62 75.3955 12.3C75.7021 11.9667 75.8555 11.5933 75.8555 11.18L75.8355 4.84C75.8355 4.4 75.6955 4.02667 75.4155 3.72C75.1355 3.41333 74.7821 3.26 74.3555 3.26C73.9421 3.26 73.5888 3.41333 73.2955 3.72C73.0021 4.01333 72.8555 4.38667 72.8555 4.84V11.18C72.8555 11.62 73.0021 12 73.2955 12.32C73.5888 12.6267 73.9421 12.78 74.3555 12.78Z" fill="#2F3035"/>
</svg>

<svg width="79" height="16" fill="none" xmlns="http://www.w3.org/2000/svg"><path d="M.267 15c-.066 0-.1-.033-.1-.1l.04-13.74c0-.053.027-.08.08-.08l3.74-.02a3.68 3.68 0 012 .52c.614.36 1.1.847 1.46 1.46.36.6.54 1.267.54 2v5.74c0 .773-.186 1.48-.56 2.12a4.254 4.254 0 01-1.5 1.5c-.626.373-1.333.567-2.12.58L.267 15zm2.34-2.46h1.24a1.65 1.65 0 001.24-.52c.347-.347.52-.76.52-1.24V5.02c0-.427-.16-.793-.48-1.1a1.405 1.405 0 00-1.1-.46l-1.4.02-.02 9.06zM9.681 15c-.054 0-.08-.033-.08-.1l.04-13.74c0-.053.026-.08.08-.08h4.04c.72 0 1.38.18 1.98.54.613.347 1.1.82 1.46 1.42.36.587.54 1.253.54 2 0 .493-.074.94-.22 1.34-.147.387-.32.72-.52 1-.2.267-.38.467-.54.6.72.8 1.08 1.74 1.08 2.82l.02 4.1c0 .067-.034.1-.1.1H15.2c-.054 0-.08-.02-.08-.06V10.8c0-.48-.174-.893-.52-1.24a1.622 1.622 0 00-1.24-.54h-1.32l-.02 5.88c0 .067-.027.1-.08.1H9.68zm2.36-8.38h1.72c.413 0 .78-.153 1.1-.46.32-.307.48-.68.48-1.12 0-.427-.16-.793-.48-1.1a1.501 1.501 0 00-1.1-.46h-1.72v3.14zM19.349 15c-.066 0-.1-.033-.1-.1l.02-13.74c0-.053.027-.08.08-.08h2.24c.054 0 .08.027.08.08l.02 13.74c0 .067-.026.1-.08.1h-2.26zm6.34 0c-.054 0-.087-.033-.1-.1l-2.76-13.74c-.014-.053.013-.08.08-.08h2.26c.053 0 .086.027.1.08l1.64 9.16 1.6-9.16c.013-.053.046-.08.1-.08h2.24c.066 0 .093.027.08.08l-2.72 13.74c-.014.067-.047.1-.1.1h-2.42zm6.492 0c-.054 0-.08-.033-.08-.1l.02-13.74c0-.053.026-.08.08-.08h6.42c.053 0 .08.033.08.1v2.24c0 .053-.027.08-.08.08h-4.1v3.12h4.1c.053 0 .08.027.08.08l.02 2.26c0 .053-.027.08-.08.08h-4.12v3.5h4.12c.053 0 .08.033.08.1v2.28c0 .053-.027.08-.08.08h-6.46zm11.367 0c-.053 0-.08-.033-.08-.1l.04-13.74c0-.053.027-.08.08-.08h2.44c.053 0 .1.027.14.08l1.82 2.64 1.82-2.64c.04-.053.087-.08.14-.08h2.46c.053 0 .08.027.08.08l.04 13.74c0 .067-.027.1-.08.1h-2.26c-.053 0-.08-.033-.08-.1l-.02-10.2-2.1 3.04-2.08-3.04-.02 10.2c0 .067-.027.1-.08.1h-2.26zm14.362.2c-.72 0-1.38-.18-1.98-.54a4.373 4.373 0 01-1.42-1.46 3.918 3.918 0 01-.54-2.02l.02-6.34c0-.733.173-1.4.52-2 .36-.6.84-1.08 1.44-1.44a3.74 3.74 0 011.96-.54c.72 0 1.373.18 1.96.54.587.36 1.053.84 1.4 1.44.36.6.54 1.267.54 2l.02 6.34c0 .733-.18 1.407-.54 2.02-.346.6-.82 1.087-1.42 1.46-.587.36-1.24.54-1.96.54zm0-2.42c.4 0 .747-.16 1.04-.48.307-.333.46-.707.46-1.12l-.02-6.34c0-.44-.14-.813-.42-1.12a1.374 1.374 0 00-1.06-.46c-.413 0-.766.153-1.06.46-.293.293-.44.667-.44 1.12v6.34c0 .44.147.82.44 1.14.294.307.647.46 1.06.46zM65.097 15c-.053 0-.08-.033-.08-.1V3.5h-2.6c-.067 0-.1-.033-.1-.1l.02-2.24c0-.053.026-.08.08-.08h7.6c.067 0 .1.027.1.08V3.4c0 .067-.027.1-.08.1h-2.62l.02 11.4c0 .067-.027.1-.08.1h-2.26zm9.259.2c-.72 0-1.38-.18-1.98-.54a4.373 4.373 0 01-1.42-1.46 3.918 3.918 0 01-.54-2.02l.02-6.34c0-.733.173-1.4.52-2 .36-.6.84-1.08 1.44-1.44a3.74 3.74 0 011.96-.54c.72 0 1.373.18 1.96.54.586.36 1.053.84 1.4 1.44.36.6.54 1.267.54 2l.02 6.34c0 .733-.18 1.407-.54 2.02-.347.6-.82 1.087-1.42 1.46-.587.36-1.24.54-1.96.54zm0-2.42c.4 0 .746-.16 1.04-.48.306-.333.46-.707.46-1.12l-.02-6.34c0-.44-.14-.813-.42-1.12a1.374 1.374 0 00-1.06-.46c-.414 0-.767.153-1.06.46-.294.293-.44.667-.44 1.12v6.34c0 .44.146.82.44 1.14.293.307.646.46 1.06.46z" fill="#2F3035"/></svg>
